X: 623
U:~=!turn!
M:C
L:1/8
K:D
{/c}d2 (FG) AFAF | BAGF TE2 (eg) | fdec {/c}d2 :: (de) | f2 df dfdf | {gf}e2 (ce) cece |
f2 (df) dfdf | edcB {cB}A2 (Bc) | dBdB cAcA | dBdB cAcA | afge fdec | {/c}d2 d2 d2 :|


